src/assets/duotone/Google.svg

<svg width="24" height="24" viewBox="0 0 24 24"  xmlns="http://www.w3.org/2000/svg">
<path d="M12.2 5.87C12.13 5.87 12.06 5.87 12 5.88V2.00999C12.07 1.99999 12.13 2 12.2 2C14.46 2 16.4 2.69 17.99 3.86C18.49 4.22 18.53 4.95 18.09 5.38L16.7 6.74001C16.36 7.07001 15.84 7.13 15.45 6.86C14.7 6.34 13.63 5.87 12.2 5.87Z" />
<path d="M21.8 12.2197C21.8 15.2697 20.71 17.8297 18.82 19.5797C17.17 21.1097 14.9 21.9997 12.2 21.9997C12.13 21.9997 12.07 21.9997 12 21.9897V18.1197C12.07 18.1297 12.13 18.1297 12.2 18.1297C13.69 18.1297 14.82 17.7197 15.67 17.1297C17 16.1997 17.6 14.8097 17.71 13.8897H13.2C12.65 13.8897 12.2 13.4397 12.2 12.8897V11.1797C12.2 10.6297 12.65 10.1797 13.2 10.1797H20.75C21.26 10.1797 21.69 10.5597 21.74 11.0697C21.78 11.4197 21.8 11.7897 21.8 12.2197Z" />
<path opacity="0.4" d="M6.5002 10.0198C6.3002 10.6398 6.1802 11.3098 6.1802 11.9998C6.1802 12.6898 6.3002 13.3498 6.5102 13.9798C7.2902 16.3298 9.4502 18.0398 12.0002 18.1198V21.9898C8.1802 21.9198 4.8902 19.6998 3.2802 16.4898H3.2702C2.5902 15.1298 2.2002 13.6098 2.2002 11.9998C2.2002 10.3898 2.5902 8.86977 3.2702 7.50977C4.8802 4.29977 8.1702 2.07977 12.0002 2.00977V5.87978C9.6402 5.94978 7.6302 7.40977 6.7102 9.47977C6.6302 9.65977 6.5602 9.83978 6.5002 10.0198Z" />
</svg>

<?xml version="1.0" encoding="UTF-8"?>
<svg width="24" height="24" viewBox="0 0 24 24" xmlns="http://www.w3.org/2000/svg">
 <path d="m12.2 5.87c-0.07 0-0.14 0-0.2 0.01v-3.87c0.07-0.01 0.13-0.00999 0.2-0.00999 2.26 0 4.2 0.69 5.79 1.86 0.5 0.36 0.54 1.09 0.1 1.52l-1.39 1.36c-0.34 0.33-0.86 0.38999-1.25 0.11999-0.75-0.52-1.82-0.99-3.25-0.99z"/>
 <path d="m21.8 12.22c0 3.05-1.09 5.61-2.98 7.36-1.65 1.53-3.92 2.42-6.62 2.42-0.07 0-0.13 0-0.2-0.01v-3.87c0.07 0.01 0.13 0.01 0.2 0.01 1.49 0 2.62-0.41 3.47-1 1.33-0.93 1.93-2.32 2.04-3.24h-4.51c-0.55 0-1-0.45-1-1v-1.71c0-0.55 0.45-1 1-1h7.55c0.51 0 0.94 0.38 0.99 0.89 0.04 0.35 0.06 0.72 0.06 1.15z"/>
 <path d="m6.5002 10.02c-0.2 0.62-0.32 1.29-0.32 1.98s0.12 1.35 0.33 1.98c0.78 2.35 2.94 4.06 5.49 4.14v3.87c-3.82-0.07-7.11-2.29-8.72-5.5h-0.01c-0.68-1.36-1.07-2.88-1.07-4.49s0.39-3.13 1.07-4.49c1.61-3.21 4.9-5.43 8.73-5.5v3.87c-2.36 0.07-4.37 1.53-5.29 3.6-0.08 0.18-0.15 0.36001-0.21 0.54003z" opacity=".4"/>
</svg>
